!!!COM: Bach, Johann Sebastian
!!!OPR: Das wohltemperirte Clavier, Band I
!!!XEN: The Well-Tempered Clavier, Volume I
!!!OTL: Prelude in E-flat Major
!!!OMV: Prelude VII
!!!SCT: BWV 852
!!!SCA: Thematisch-systematisches Verzeichnis der musikalischen Werke Johann Sebastian Bach: Bach-Werke-Verzeichnis (Schmieder)
!!!YOR: Bach Gesellschaft Edition xiv
!!!ENC: Walter Hewlett
!!!CDT: 1685/3//-1750/7/28/
!!!OCY: Deutschland
!!!YEC: Copyright (c) 1994, 2000 Center for Computer Assisted Research in the Humanities
!!!YEM: Rights to all derivative editions reserved
!!!YEN: United States of America
**kern
*k[b-e-a-]
*E-:
*M4/4
*MM69
=1-
*^
*^	*
*^	*	*
16r	2ryy	2r	[1E-\
16g/LL	.	.	.
16a-/	.	.	.
16b-/JJ	.	.	.
16a-/LL	.	.	.
16g/	.	.	.
16f/	.	.	.
[16e-/JJ	.	.	.
[2dd-/	[2e-/	16r	.
.	.	16G/LL	.
.	.	16A-/	.
.	.	16B-/JJ	.
.	.	16A-/LL	.
.	.	16G/	.
.	.	16F/	.
.	.	16E-/JJ	.
=2	=2	=2	=2
16dd-/LL]	8e-/]	[2A-/	1E-\_
16cc/	.	.	.
16dd-/	8r	.	.
16ee-/JJ	.	.	.
16dd-/LL	4r	.	.
16cc/	.	.	.
16b-/	.	.	.
[16a-/JJ	.	.	.
[2ff/	[2a-/	16A-/LL]	.
.	.	16A-/	.
.	.	16B-/	.
.	.	16c/JJ	.
.	.	16B-/LL	.
.	.	16A-/	.
.	.	16G/	.
.	.	16F/JJ	.
=3	=3	=3	=3
16ff/LL]	8a-/]	[2d/	2E-\]
16ddn/	.	.	.
16ee-/	8r	.	.
16ff/JJ	.	.	.
16ee-/LL	4r	.	.
16dd/	.	.	.
16cc/	.	.	.
[16b-/JJ	.	.	.
[2aa-/	[2b-/	16d/LL]	2r
.	.	16d/	.
.	.	16e-/	.
.	.	16f/JJ	.
.	.	16e-/LL	.
.	.	16d/	.
.	.	16c/	.
.	.	16B-/JJ	.
=4	=4	=4	=4
16aa-/LL]	8b-/]	[2e-/	1ryy
16ff/	.	.	.
16gg/	8r	.	.
16aa-/JJ	.	.	.
16gg/LL	4r	.	.
16ff/	.	.	.
16ee-/	.	.	.
16dd/JJ	.	.	.
[2gg/	[2ee-\	16e-/LL]	.
.	.	16e-/	.
.	.	16f/	.
.	.	16g/JJ	.
.	.	16f/LL	.
.	.	16e-/	.
.	.	16d/	.
.	.	16c/JJ	.
=5	=5	=5	=5
16gg/LL]	16ee-\]	16B-/LL	1ryy
16ee-/	16r	16c/	.
16ff/	8r	16d/	.
16gg/JJ	.	16e-/JJ	.
16ff/LL	4r	16d/LL	.
16ee-/	.	16c/	.
16dd/	.	16B-/	.
[16cc/JJ	.	16A-/JJ	.
[2ccc/	2cc\	16G/LL	.
.	.	16E-/	.
.	.	16F/	.
.	.	16G/JJ	.
.	.	16F/LL	.
.	.	16E-/	.
.	.	16D/	.
.	.	16C/JJ	.
=6	=6	=6	=6
16ccc/LL]	8dd\	16F/LL	1ryy
16aan/	.	16C/	.
16bb-/	8r	16D/	.
16ccc/JJ	.	16E-/JJ	.
16bb-/LL	4r	16D/LL	.
16aa/	.	16C/	.
16gg/	.	16BB-/	.
16ff/JJ	.	16AAn/JJ	.
16bb-\LL	2ryy	16D/LL	.
16aan\	.	16BB-/	.
16gg\	.	16C/	.
16ff\JJ	.	16D/JJ	.
16ee-\LL	.	16C/LL	.
16dd\	.	16BB-/	.
16cc\]	.	16AAn/	.
16b-\JJ]	.	16GG/JJ	.
=7	=7	=7	=7
[2ee-\	1ryy	16r	1C\
.	.	16E-/LL	.
.	.	16F/	.
.	.	16G/JJ	.
.	.	16F/LL	.
.	.	16E-/	.
.	.	16D/	.
.	.	16C/JJ	.
16ee-\LL]	.	2An/	.
16ee-\	.	.	.
16ff\	.	.	.
16gg\JJ	.	.	.
16ff\LL	.	.	.
16ee-\	.	.	.
16dd\	.	.	.
16cc\JJ	.	.	.
=8	=8	=8	=8
32dd\LLL	1ryy	1B-/	[1BB-\
32cc\	.	.	.
32dd\	.	.	.
32ee-\	.	.	.
32dd\	.	.	.
32cc\	.	.	.
32b-\	.	.	.
32an\JJJ]	.	.	.
32b-\LLL	.	.	.
32a\	.	.	.
32b-\	.	.	.
32cc\	.	.	.
32b-\	.	.	.
32a-\	.	.	.
32g\	.	.	.
32f\JJJ	.	.	.
32g/LLL	.	.	.
32f/	.	.	.
32g/	.	.	.
32a-/	.	.	.
32g/	.	.	.
32f/	.	.	.
32e-/]	.	.	.
32d/JJJ	.	.	.
32e-/LLL	.	.	.
32d/	.	.	.
32e-/	.	.	.
32f/	.	.	.
32e-/	.	.	.
32d/	.	.	.
32c/	.	.	.
32B-/JJJ	.	.	.
=9	=9	=9	=9
32r	2ryy	1An/	1BB-\_
32c/LLL	.	.	.
32d/	.	.	.
32e-/	.	.	.
32f/	.	.	.
32g/	.	.	.
32an/	.	.	.
32b-/JJJ	.	.	.
32cc/LLL	.	.	.
32a/	.	.	.
32f/	.	.	.
32g/	.	.	.
32a/	.	.	.
32b-/	.	.	.
32cc/	.	.	.
32dd/JJJ	.	.	.
[8ee-/L	2cc\	.	.
32ee-/LL]	.	.	.
64ff/L	.	.	.
64ee-/J	.	.	.
32dd/	.	.	.
32ee-/JJJ	.	.	.
8.ee-/L	.	.	.
16dd/Jk	.	.	.
=10	=10	=10	=10
4dd/	4f\	4B-/	4BB-\]
4r	4r	2e-/	4r
2r	2r	.	4F\
.	.	4d/	[4B-\
=11	=11	=11	=11
1r	2r	2c/	4B-\]
.	.	.	4A-\
.	4e-\	4B-/	2G\
.	[4a-\	4c/	.
=12	=12	=12	=12
4r	4a-\]	4d/	4F\
4b-/	2g\	4e-/	2E-\
2ee-/	.	4d-/	.
.	[4f\	4c/	[4A-\
=13	=13	=13	=13
4dd/	4f\]	2B-/	4A-\]
2ee-/	2g\	.	4G\
.	.	2e-/	2c\
[4aa-/	4cc\	.	.
=14	=14	=14	=14
4aa-/]	2b-\	4f/	4d\
2gg/	.	2e-/	4e-\
.	2cc\	.	2A-\
8ff/L	.	[4a-/	.
8ee-/J	.	.	.
=15	=15	=15	=15
4dd/	[2b-\	4a-/]	[1B-\
2ee-/	.	4g/	.
.	4.b-\]	2f/	.
4dd/	.	.	.
.	8a-\	.	.
=16	=16	=16	=16
4een/	4g\	2c/	4B-\]
2ff/	4cc\	.	4A-\
.	4bn\	4d/	4G\
4ee-/	8cc\L	4e-/	[4c\
.	8b-\J	.	.
=17	=17	=17	=17
4dd/	4a-\	8f/L	4c\]
.	.	8e-/J	.
2gg/	4b-\	4d/	4B-\
.	[2a-\	4e-/	4c\
[4ff/	.	4f/	4d\
=18	=18	=18	=18
4ff/]	4a-\]	2B-/	4.G\
2ee-/	4g\	.	.
.	.	.	8A-\
.	4f\	[2B-/	4B-\
[4dd/	8g\L	.	4BB-\
.	8a-\J	.	.
=19	=19	=19	=19
4dd/]	2g\	4B-/]	2.E-\
8cc/L	.	8e-/L	.
8b-/J	.	8d/J	.
4an/	[2f\	4c/	.
[4b-/	.	8d/L	4D\
.	.	8c/J	.
=20	=20	=20	=20
4b-/]	4f\]	8B-/L	2Gx\
.	.	8Anx/J	.
2ee-/	16e-\LL	4B-x/	.
.	16dd\	.	.
.	16cc\	.	.
.	16b-\JJ	.	.
.	4an\	4cx/	[2F\
4dd/	[4b-\	8dx/L	.
.	.	8e-x/J	.
=21	=21	=21	=21
2cc/	4b-\]	4.f/	2F\]
.	2a-\	.	.
.	.	8e-/	.
2b-/	.	8d/L	[4G\
.	.	8B-/J	.
.	[4g\	[4e-/	16G\LL]
.	.	.	16F\
.	.	.	16E-\
.	.	.	16D\JJ
=22	=22	=22	=22
2a-/	4g\]	4e-/]	4C\
.	2f\	[2.B-/	4D\
[2g/	.	.	[4E-\
.	8e-\L	.	16E-\LL]
.	.	.	16D-\
.	8d-\J	.	16C\
.	.	.	16BB-\JJ
=23	=23	=23	=23
4g/]	2.c\	4B-/]	2AA-\
8f/L	.	8A-/L	.
8e-/J	.	8G/J	.
2dn/	.	4F/	2BB-\
.	[4B-\	8G/L	.
.	.	8F/J	.
=24	=24	=24	=24
2.e-/	4B-\]	4.E-/	2C\
.	4An\	.	.
.	.	8F/	.
.	[2B-\	4G/	2BB-\
8d/L	.	8F/L	.
8c/J	.	8E-/J	.
=25	=25	=25	=25
4d/	16B-\LL]	4F/	4BB-\
.	16b-\	.	.
.	16cc\	.	.
.	16dd\JJ	.	.
4r	16cc\LL	4r	2E-\
.	16b-\	.	.
.	16an\	.	.
.	16g\JJ	.	.
2r	8f\L	2r	.
.	16g\L	.	.
.	16a\JJ	.	.
.	16b-\LL	.	4D\
.	16a\	.	.
.	16g\	.	.
.	16f\JJ	.	.
=26	=26	=26	=26
2r	16e-\LL	1ryy	2G\
.	16d\	.	.
.	16c\	.	.
.	16B-\JJ	.	.
.	8e-\L	.	.
.	8e-\J	.	.
16r	4e-\	.	2F\
16a-/LL	.	.	.
16b-/	.	.	.
16cc/JJ	.	.	.
16b-/LL	4d\	.	.
16a-/	.	.	.
16g/	.	.	.
16f/JJ	.	.	.
=27	=27	=27	=27
16g/LL	4e-\	4E-/	4.E-\
16ee-/	.	.	.
16ff/	.	.	.
16gg/JJ	.	.	.
16ff/LL	4r	2A-/	.
16ee-/	.	.	.
16dd/	.	.	8F\
16cc/JJ	.	.	.
8b-/L	2r	.	8G\L
16cc/L	.	.	8F\
16dd/JJ	.	.	.
16ee-/LL	.	4G/	8E-\
16dd/	.	.	.
16cc/	.	.	8D\J
16b-/JJ	.	.	.
=28	=28	=28	=28
16a-/LL	1ryy	2c/	16C\LL
16g/	.	.	16E-\
16f/	.	.	16F\
16e-/JJ	.	.	16G\JJ
8a-/L	.	.	16F\LL
.	.	.	16E-\
8a-/J	.	.	16D\
.	.	.	16C\JJ
4a-/	.	[4B-\	16E-\LL
.	.	.	16D\
.	.	.	16C\
.	.	.	16BB-\JJ
[4g/	.	16B-\LL]	8E-\L
.	.	16d\	.
.	.	16e-\	8D\J
.	.	16f\JJ	.
=29	=29	=29	=29
4g/]	1ryy	16e-\LL	[4C\
.	.	16d\	.
.	.	16c\	.
.	.	16B-\JJ	.
4an/	.	8e-\L	16C\LL]
.	.	.	16C\
.	.	8c\J	16D\
.	.	.	16E-\JJ
8b-/L	.	[4f\	16D\LL
.	.	.	16C\
8cc/J	.	.	16BB-\
.	.	.	16AAn\JJ
[4dd/	.	16f\LL]	8BB-\L
.	.	16f\	.
.	.	16g\	8B-\J
.	.	16a-\JJ	.
=30	=30	=30	=30
4dd/_	4B-/	16g\LL	2E-\
.	.	16f\	.
.	.	16e-\	.
.	.	16d\JJ	.
16dd/LL]	2e-/	4g\	.
16dd/	.	.	.
16cc/	.	.	.
16b-/JJ	.	.	.
8an/L	.	[2f\	16r
.	.	.	16F\LL
16b-/L	.	.	16G\
16cc/JJ	.	.	16An\JJ
[4dd/	4d/	.	16B-\LL
.	.	.	16A\
.	.	.	16G\
.	.	.	16F\JJ
=31	=31	=31	=31
4dd/_	2g/	4f\]	16E-\LL
.	.	.	16D\
.	.	.	16C\
.	.	.	16BB-\JJ
16dd/LL]	.	8e-/L	8E-\L
16cc/	.	.	.
16dd/	.	8d/J	8E-\J
16ee-/JJ	.	.	.
4ff/	16r	4c/	4E-\
.	16an\LL	.	.
.	16b-\	.	.
.	16cc\JJ	.	.
4r	16b-\LL	[4d/	4D\
.	16a\	.	.
.	16g\	.	.
.	16f\JJ	.	.
=32	=32	=32	=32
16r	[2b-\	16d/LL]	[2G\
16ff/LL	.	16d/	.
16gg/	.	16e-/	.
16aa-/JJ	.	16f/JJ	.
16gg/LL	.	16e-/LL	.
16ff/	.	16d/	.
16ee-/	.	16c/	.
16dd/JJ	.	16B-/JJ	.
[2ee-/	16b-\LL]	[2c/	16G\LL]
.	16b-\	.	16G\
.	16cc\	.	16An\
.	16dd\JJ	.	16B-\JJ
.	16cc\LL	.	16A\LL
.	16b-\	.	16G\
.	16an\	.	16F\
.	16g\JJ	.	16E-\JJ
=33	=33	=33	=33
16ee-/LL]	[2an\	2c/_	2F\
16ee-/	.	.	.
16ff/	.	.	.
16gg/JJ	.	.	.
16ff/LL	.	.	.
16ee-/	.	.	.
16dd/	.	.	.
16cc/JJ	.	.	.
[2dd/	8a\L]	4c/]	16r
.	.	.	16F#\LL
.	8d\	.	16G\
.	.	.	16An\JJ
.	8g\	[4B-/	16G\LL
.	.	.	16Fn\
.	8f\J	.	16E-\
.	.	.	16D\JJ
=34	=34	=34	=34
4dd/]	2e-\	16B-/LL]	2C\
.	.	16G/	.
.	.	16An/	.
.	.	16B-/JJ	.
[4cc/	.	16A/LL	.
.	.	16G/	.
.	.	16F#/	.
.	.	16G/JJ	.
8cc/L]	4d\	8F#/	2D\
8b-/J	.	4G/	.
4an/	4c\	.	.
.	.	8F#/	.
=35	=35	=35	=35
4g/	4B-\	16r	4GG\
.	.	16G/LL	.
.	.	16A-/	.
.	.	16B-/JJ	.
4r	2e-\	16A-/LL	4r
.	.	16G/	.
.	.	16F/	.
.	.	16E-/JJ	.
4f/	.	4B-/	16r
.	.	.	16D\LL
.	.	.	16E-\
.	.	.	16F\JJ
[4b-/	4d\	4r	16E-\LL
.	.	.	16D\
.	.	.	16C\
.	.	.	16BB-\JJ
=36	=36	=36	=36
4b-/]	4g\	16r	4En\
.	.	16B-/LL	.
.	.	16c/	.
.	.	16d-/JJ	.
4an/	[4f\	16c/LL	2F\
.	.	16B-/	.
.	.	16A-/	.
.	.	16G/JJ	.
[2dd-/	16f\LL]	8A-/L	.
.	16f\	.	.
.	16g\	16B-/L	.
.	16a-\JJ	16c/JJ	.
.	16g\LL	8B-/L	4BB-\
.	16f\	.	.
.	16en\	8A-/J	.
.	16f\JJ	.	.
=37	=37	=37	=37
16dd-/LL]	2en\	4G/	2C\
16b-/	.	.	.
16cc/	.	.	.
16dd-/JJ	.	.	.
16cc/LL	.	[2A-/	.
16b-/	.	.	.
16a-/	.	.	.
16g/JJ	.	.	.
[2f/	16r	.	2D-\
.	16e-\LL	.	.
.	16d-\	.	.
.	16c\JJ	.	.
.	[4B-\	16A-/LL]	.
.	.	16A-/	.
.	.	16G/	.
.	.	16F/JJ	.
=38	=38	=38	=38
4f/]	16B-\LL]	2G/	2C\
.	16B-\	.	.
.	16c\	.	.
.	16d-\JJ	.	.
4en/	16c\LL	.	.
.	16B-\	.	.
.	16A-\	.	.
.	16G\JJ	.	.
4f/	4A-\	4F/	16r
.	.	.	16FF\LL
.	.	.	16GG\
.	.	.	16AA-\JJ
[4cc/	4r	4r	16GG\LL
.	.	.	16FF\
.	.	.	16EE-\
.	.	.	16DD\JJ
=39	=39	=39	=39
4cc/]	16r	4D/	2GG\
.	16f\LL	.	.
.	16g\	.	.
.	16a-\JJ	.	.
4bn/	16g\LL	2G/	.
.	16f\	.	.
.	16e-\	.	.
.	16d\JJ	.	.
[2ee-/	16c\LL	.	2C\
.	16g\	.	.
.	16a-\	.	.
.	16b-\JJ	.	.
.	16a-\LL	4E-/	.
.	16g\	.	.
.	16f\	.	.
.	16e-\JJ	.	.
=40	=40	=40	=40
16ee-/LL]	2f\	2A-/	2.F\
16ee-/	.	.	.
16ff/	.	.	.
16gg/JJ	.	.	.
16ff/LL	.	.	.
16ee-/	.	.	.
16dd/	.	.	.
16cc/JJ	.	.	.
16bn/LL	4d\	4G/	.
16ff/	.	.	.
16gg/	.	.	.
16aa-/JJ	.	.	.
16gg/LL	[4e-\	[4c/	4E-\
16ff/	.	.	.
16ee-/	.	.	.
16dd/JJ	.	.	.
=41	=41	=41	=41
16cc/LL	8e-\L]	4.c/]	8A-\L
16bn/	.	.	.
16cc/	8a-\	.	8F\J
16dd/JJ	.	.	.
8.dd/L	8g\	.	4G\
.	8f\J	8Bn/	.
16cc/Jk	.	.	.
4cc/	4e-\	4c/	16r
.	.	.	16C\LL
.	.	.	16D-\
.	.	.	16E-\JJ
4r	[4a-\	4r	16D-\LL
.	.	.	16C\
.	.	.	16BB-\
.	.	.	16AA-\JJ
=42	=42	=42	=42
16r	4a-\]	4B-/	2E-\
16b-/LL	.	.	.
16cc/	.	.	.
16dd-/JJ	.	.	.
16cc/LL	4g\	2e-/	.
16b-/	.	.	.
16a-/	.	.	.
16g/JJ	.	.	.
8f/L	4cc\	.	2A-\
16g/L	.	.	.
16a-/JJ	.	.	.
16b-/LL	[4b-\	4d/	.
16a-/	.	.	.
16g/	.	.	.
16f/JJ	.	.	.
=43	=43	=43	=43
16e-/LL	1b-\_	2g\	[4G\
16d/	.	.	.
16c/	.	.	.
16B-/JJ	.	.	.
8ee-/L	.	.	16G\LL]
.	.	.	16F\
8ee-/J	.	.	16G\
.	.	.	16A-\JJ
4ee-/	.	[2f\	16B-\LL
.	.	.	16A-\
.	.	.	16B-\
.	.	.	16c\JJ
4dd/	.	.	16B-\LL
.	.	.	16A-\
.	.	.	16G\
.	.	.	16F\JJ
=44	=44	=44	=44
2.gg/	2b-/_	16f\LL]	2En\
.	.	16B-/	.
.	.	16c/	.
.	.	16d-/JJ	.
.	.	16c/LL	.
.	.	16B-/	.
.	.	16A-/	.
.	.	16G/JJ	.
.	16b-\LL]	2c/	[2A-\
.	16b-\	.	.
.	16cc\	.	.
.	16dd-\JJ	.	.
4ff/	16cc\LL	.	.
.	16b-\	.	.
.	16a-\	.	.
.	16g\JJ	.	.
=45	=45	=45	=45
4bn/ 4f/	2ryy	4d\	16A-\LL]
.	.	.	16F\
.	.	.	16G\
.	.	.	16A-\JJ
8cc/ 8g/L	.	8e-\L	16G\LL
.	.	.	16F\
8dd/ 8bn/J	.	8f\J	16E-\
.	.	.	16D\JJ
!	! These notes printed in pass one	!	!
!	! F4    16      2 q     u1	!	!
!	! G4     8      2 e     u1 [	!	!
!	! B4     8      2 e n   u1 ]	!	!
8ee-/L	4cc/	8g\L	16C\LL
.	.	.	16BB-\
8een/J	.	8g\J	16C\
.	.	.	16D-\JJ
8ff/ 8dd/L	4ryy	8a-\L	16C\LL
.	.	.	16BB-\
8gg/ 8een/J	.	8b-\J	16AA-\
.	.	.	16GG\JJ
=46	=46	=46	=46
[2aa-/	16ff/LL	4cc\	4FF\
.	16ee-/	.	.
.	16ff/	.	.
.	16gg/JJ	.	.
.	16ff/LL	4r	2BB-\
.	16ee-/	.	.
.	16dd/	.	.
.	16cc/JJ	.	.
16aa-/LL]	[2dd\	2r	.
16aa-/	.	.	.
16bb-/	.	.	.
16ccc/JJ	.	.	.
16bb-/LL	.	.	4GG\
16aa-/	.	.	.
16gg/	.	.	.
16ff/JJ	.	.	.
=47	=47	=47	=47
2ee-/	16dd\LL]	4E-/	2C\
.	16b-\	.	.
.	16cc\	.	.
.	16dd-\JJ	.	.
.	16cc\LL	2A-/	.
.	16b-\	.	.
.	16a-\	.	.
.	16g\JJ	.	.
[2b-/	8f\L	.	8D\L
.	16g\L	.	8BB-\
.	16a-\JJ	.	.
.	16b-\LL	4G/	8E-\
.	16a-\	.	.
.	16g\	.	8D\J
.	16f\JJ	.	.
=48	=48	=48	=48
4b-/_	16e-\LL	[2c/	4.C\
.	16d\	.	.
.	16c\	.	.
.	16B-\JJ	.	.
16b-/LL]	8e-\L	.	.
16a-/	.	.	.
16b-/	8e-\J	.	8BB-\
16cc/JJ	.	.	.
4f/	4e-\	16c/LL]	4AAn\
.	.	16An/	.
.	.	16B-/	.
.	.	16c/JJ	.
4f/	4d\	16B-/LL	4BB-\
.	.	16A-/	.
.	.	16G/	.
.	.	16F/JJ	.
=49	=49	=49	=49
2e-/	2c\	4G-/	16BB-\LL
.	.	.	16AAn\
.	.	.	16BB-\
.	.	.	16C\JJ
.	.	4F/	16BB-\LL
.	.	.	16AA\
.	.	.	16GGn\
.	.	.	16FF\JJ
4d/	16r	4F/	4BB-\
.	16f\LL	.	.
.	16g\	.	.
.	16a-\JJ	.	.
4r	16g\LL	4r	[4E-\
.	16f\	.	.
.	16e-\	.	.
.	16d\JJ	.	.
=50	=50	=50	=50
[2a-/	8c\L	1ryy	4E-\]
.	16d\L	.	.
.	16e-\JJ	.	.
.	16f\LL	.	4D\
.	16e-\	.	.
.	16d\	.	.
.	16c\JJ	.	.
16a-/LL]	16B-/LL	.	[4G\
16f/	16A-/	.	.
16g/	16G/	.	.
16a-/JJ	16F/JJ	.	.
16g/LL	8B-/L	.	8G\L]
16f/	.	.	.
16e-/	8B-/J	.	8F\J
16d/JJ	.	.	.
=51	=51	=51	=51
[4c/	16B-/LL	1ryy	4En\
.	16G/	.	.
.	16An/	.	.
.	16B-/JJ	.	.
16c/LL]	[4A/	.	8F\L
16c/	.	.	.
16d/	.	.	8E-\J
16e-/JJ	.	.	.
[4f/	16A/LL]	.	[2D\
.	16A/	.	.
.	16Bn/	.	.
.	16c/JJ	.	.
16f/LL]	[4B/	.	.
16e-/	.	.	.
16f/	.	.	.
16g/JJ	.	.	.
=52	=52	=52	=52
[2a-/	8Bn/L]	1ryy	16D\LL]
.	.	.	16D\
.	8Bn\	.	16E-\
.	.	.	16F\JJ
.	8c\	.	16E-\LL
.	.	.	16D\
.	8d\J	.	16C\
.	.	.	16BBn\JJ
8a-/L]	[2e-\	.	16C\LL
.	.	.	16BB\
8g/	.	.	16C\
.	.	.	16D\JJ
8a-/	.	.	16C\LL
.	.	.	16BB-\
8b-/J	.	.	16AA-\
.	.	.	16GG\JJ
=53	=53	=53	=53
[4cc/	16e-\LL]	4C/	2AA-\
.	16e-\	.	.
.	16f\	.	.
.	16g\JJ	.	.
16cc/LL]	4f\	2F/	.
16ee-/	.	.	.
16dd/	.	.	.
16cc/JJ	.	.	.
8bn/L	2g\	.	16r
.	.	.	16GG\LL
16cc/L	.	.	16AAn\
16dd/JJ	.	.	16BBn\JJ
16ee-/LL	.	4E-/	[4C\
16dd/	.	.	.
16cc/	.	.	.
16b-/JJ	.	.	.
=54	=54	=54	=54
16a-/LL	2r	2A-/	16C\LL]
16g/	.	.	16C\
16f/	.	.	16D\
16e-/JJ	.	.	16E-\JJ
16d/LL	.	.	8F\L
16dd/	.	.	.
16ee-/	.	.	8F\J
16ff/JJ	.	.	.
8bn/L	4d\	2G/	4F\
16cc/L	.	.	.
16dd/JJ	.	.	.
16cc/LL	[4g\	.	4E-\
16b-/	.	.	.
16a-/	.	.	.
16g/JJ	.	.	.
=55	=55	=55	=55
[2cc/	4g\]	16r	2A-\
.	.	16c/LL	.
.	.	16d-/	.
.	.	16e-/JJ	.
.	4f\	16d-/LL	.
.	.	16c/	.
.	.	16B-/	.
.	.	16A-/JJ	.
8cc/L]	[2b-\	2G/	16r
.	.	.	16En\LL
8dd/J	.	.	16F\
.	.	.	16G\JJ
4een/	.	.	16F\LL
.	.	.	16E\
.	.	.	16Dn\
.	.	.	16C\JJ
=56	=56	=56	=56
16ff/LL	8b-\L]	4r	2.F\
16cc/	.	.	.
16dd-/	8a-\J	.	.
16ee-/JJ	.	.	.
16dd-/LL	2dd-\	16r	.
16cc/	.	16A-/LL	.
16b-/	.	16B-/	.
16a-/JJ	.	16c/JJ	.
4g/	.	16B-/LL	.
.	.	16A-/	.
.	.	16G/	.
.	.	16F/JJ	.
4r	4cc\	8G/	16E-\LL
.	.	.	16C\
.	.	8r	16D-\
.	.	.	16E-\JJ
=57	=57	=57	=57
16r	2ff\	1r	16D-\LL
16aa-/LL	.	.	16C\
16bb-/	.	.	16BB-\
16ccc/JJ	.	.	16AA-\JJ
16bb-/LL	.	.	8D-\L
16aa-/	.	.	.
16gg/	.	.	8D-\J
16ff/JJ	.	.	.
16aa-/LL	[4ee-\	.	4D-\
16gg/	.	.	.
16ff/	.	.	.
16ee-/JJ	.	.	.
[4aa-/	16ee-\LL]	.	4C\
.	16ee-\	.	.
.	16ff\	.	.
.	16gg-\JJ	.	.
=58	=58	=58	=58
4aa-/]	16ff\LL	4r	4D-\
.	16ee-\	.	.
.	16dd-\	.	.
.	16cc\JJ	.	.
4ggn/	4b-\	16r	4E-\
.	.	16B-/LL	.
.	.	16c/	.
.	.	16d-/JJ	.
8aa-/L	16r	4c/	4A-\
.	16b-\LL	.	.
8ee-/J	16cc\	.	.
.	16dd-\JJ	.	.
[4aa-/	16cc\LL	4r	4F\
.	16b-\	.	.
.	16a-\	.	.
.	16g\JJ	.	.
=59	=59	=59	=59
4aa-/]	8f\L	16r	8B-\
.	.	16dn/LL	.
.	16g\L	16e-/	8r
.	16a-\JJ	16f/JJ	.
4gg/	16b-\LL	4e-/	4r
.	16a-\	.	.
.	16g\	.	.
.	16f\JJ	.	.
2ccc/	8e-\L	16r	2r
.	.	16c/LL	.
.	16f\L	16d-/	.
.	16g\JJ	16e-/JJ	.
.	8a-\L	16d-/LL	.
.	.	16c/	.
.	8a-\J	16B-/	.
.	.	16A-/JJ	.
=60	=60	=60	=60
[4bb-/	16a-\LL	2e-/	1r
.	16g\	.	.
.	16a-\	.	.
.	16b-\JJ	.	.
16bb-/LL]	2cc\	.	.
16bb-/	.	.	.
16aa-/	.	.	.
16gg/JJ	.	.	.
8ff/L	.	2d/	.
16gg/L	.	.	.
16aa-/JJ	.	.	.
16gg/LL	4b-\	.	.
16ff/	.	.	.
16ee-/	.	.	.
16dd/JJ	.	.	.
=61	=61	=61	=61
8ee-/L	2ee-\	16r	2r
.	.	16c/LL	.
16ff/L	.	16d-/	.
16gg/JJ	.	16e-/JJ	.
8aa-/L	.	16d-/LL	.
.	.	16c/	.
[8aa-/J	.	16B-/	.
.	.	16A-/JJ	.
16aa-/LL]	4dd\	2B-/	4BB-\
16gg/	.	.	.
16aa-/	.	.	.
16bb-/JJ	.	.	.
16aa-/LL	4ee-\	.	[4E-\
16gg/	.	.	.
16ff/	.	.	.
16ee-/JJ	.	.	.
=62	=62	=62	=62
8ff/L	4cc\	4A-/	4E-\]
16gg/L	.	.	.
16aa-/JJ	.	.	.
16bb-/LL	4r	16r	4D\
16aa-/	.	16F/LL	.
16gg/	.	16G/	.
16ff/JJ	.	16A-/JJ	.
16ee-/LL	4r	4B-/	[2G\
16dd/	.	.	.
16cc/	.	.	.
16b-/JJ	.	.	.
8ee-/L	16r	16r	.
.	16g\LL	16B-/LL	.
8ee-/J	16a-\	16c/	.
.	16b-\JJ	16d-/JJ	.
=63	=63	=63	=63
4ee-/	16a-\LL	16c/LL	4G\]
.	16g\	16B-/	.
.	16f\	16A-/	.
.	16e-\JJ	16G/JJ	.
16r	[4f\	[4A-/	16r
16dd/LL	.	.	16G\LL
16ee-/	.	.	16F\
16ff/JJ	.	.	16E-\JJ
[2b-/	16f\LL]	8A-/L]	8D\L
.	16f\	.	.
.	16g\	16G/L	16E-\L
.	16a-\JJ	16F/JJ	16F\JJ
.	16g\LL	[4G/	16E-\LL
.	16f\	.	16D\
.	16e-\	.	16C\
.	16d-\JJ	.	16BB-\JJ
=64	=64	=64	=64
4b-/]	4c\	16G/LL]	2AA-\
.	.	16E-/	.
.	.	16F/	.
.	.	16G/JJ	.
2a-/	2f\	16F/LL	.
.	.	16E-/	.
.	.	16D/	.
.	.	16C/JJ	.
.	.	16BB-/LL	16DD\
.	.	16A-/	16r
.	.	16B-/	8r
.	.	16c/JJ	.
4g/	4e-\	16B-/LL	4E-\
.	.	16A-/	.
.	.	16G/	.
.	.	16F/JJ	.
=65	=65	=65	=65
2cc/	2.a-\	4E-/	16r
.	.	.	16C\LL
.	.	.	16D-\
.	.	.	16E-\JJ
.	.	4r	16D-\LL
.	.	.	16C\
.	.	.	16BB-\
.	.	.	16AA-\JJ
4b-/	.	2r	16E-\LL
.	.	.	16Dn\
.	.	.	16C\
.	.	.	16BB-\JJ
[4ee-/	4g\	.	16A-\LL
.	.	.	16G\
.	.	.	16F\
.	.	.	16E-\JJ
=66	=66	=66	=66
4ee-/]	4f/	16r	[1B-\
.	.	16c\LL	.
.	.	16d\	.
.	.	16e-\JJ	.
4dd/	2b-/	16f\LL	.
.	.	16a-\	.
.	.	16g\	.
.	.	16f\JJ	.
2gg-/	.	16e-\LL	.
.	.	16f\	.
.	.	16e-\	.
.	.	16d\JJ	.
.	4an/	16c\LL	.
.	.	16e-\	.
.	.	16d\	.
.	.	16c\JJ	.
=67	=67	=67	=67
4ff/	4dd/	4a-\	16B-\LL]
.	.	.	16F\
.	.	.	16E-\
.	.	.	16D\JJ
[4ee-/	4b-/	4g\	16E-\LL
.	.	.	16F\
.	.	.	16G\
.	.	.	16A-\JJ
4ee-/]	4.b-/	2f\	2BB-\
4dd/	.	.	.
.	8a-/	.	.
=68	=68	=68	=68
2ee-/	16g\LL	4E-/	[1E-\
.	16b-\	.	.
.	16cc\	.	.
.	16dd-\JJ	.	.
.	16cc\LL	2A-/	.
.	16b-\	.	.
.	16a-\	.	.
.	16g\JJ	.	.
4dd/	8f\L	.	.
.	16g\L	.	.
.	16a-\JJ	.	.
[4dd-/	16b-\LL	4G/	.
.	16a-\	.	.
.	16g\	.	.
.	16f\JJ	.	.
=69	=69	=69	=69
16dd-/LL]	4e-\	2c/	1E-\_
16b-/	.	.	.
16cc/	.	.	.
16dd-/JJ	.	.	.
16cc/LL	[4a-\	.	.
16b-/	.	.	.
16cc/	.	.	.
16a-/JJ	.	.	.
2ddn/	16a-\LL]	2c-/	.
.	16a-\	.	.
.	16b-\	.	.
.	16cc-\JJ	.	.
.	16b-\LL	.	.
.	16a-\	.	.
.	16g\	.	.
.	32a-\L	.	.
.	32f\JJJ	.	.
=70	=70	=70	=70
1ee-;/	1g\	1B-/	1E-;\]
==|!	==|!	==|!	==|!
*-	*-	*-	*-
!!!END: 1994/01/12/
!!!KEY: 757756931
!!!EMD: Converted from MuseData to Humdrum Dec 19, 2000, by Andreas Kornstaedt using muse2kern.
